packages/icons/src/assets/tool-line.svg

<svg xmlns="http://www.w3.org/2000/svg" width="24" height="24"><g clip-path="url(#a)"><path d="M18.75 3h-1.5A2.257 2.257 0 0 0 15 5.25v1.5c0 .345.082.668.225.968L7.71 15.233a2.2 2.2 0 0 0-.968-.226h-1.5a2.257 2.257 0 0 0-2.25 2.25v1.5a2.257 2.257 0 0 0 2.25 2.25h1.5a2.257 2.257 0 0 0 2.25-2.25v-1.5a2.2 2.2 0 0 0-.225-.967l7.515-7.515c.293.143.616.225.968.225h1.5A2.257 2.257 0 0 0 21 6.75v-1.5A2.257 2.257 0 0 0 18.75 3M7.5 18.75c0 .413-.338.75-.75.75h-1.5a.75.75 0 0 1-.75-.75v-1.5c0-.413.337-.75.75-.75h1.5c.412 0 .75.337.75.75zm12-12c0 .412-.337.75-.75.75h-1.5a.75.75 0 0 1-.75-.75v-1.5c0-.412.337-.75.75-.75h1.5c.413 0 .75.338.75.75z"/></g><defs><clipPath id="a"><path d="M0 0h24v24H0z"/></clipPath></defs></svg>

<svg width="100%" height="100%" viewBox="0 0 24 24" version="1.1" xmlns="http://www.w3.org/2000/svg" xmlns:xlink="http://www.w3.org/1999/xlink" xml:space="preserve" style="fill-rule:evenodd;clip-rule:evenodd;stroke-linejoin:round;stroke-miterlimit:2;"><path d="M18.75,3L17.25,3C16.017,3.004 15.004,4.017 15,5.25L15,6.75C15,7.095 15.082,7.418 15.225,7.718L7.71,15.233C7.409,15.085 7.078,15.007 6.742,15.007L5.242,15.007C4.009,15.011 2.996,16.024 2.992,17.257L2.992,18.757C2.996,19.99 4.009,21.003 5.242,21.007L6.742,21.007C7.975,21.003 8.988,19.99 8.992,18.757L8.992,17.257C8.992,16.922 8.915,16.591 8.767,16.29L16.282,8.775C16.575,8.918 16.898,9 17.25,9L18.75,9C19.983,8.996 20.996,7.983 21,6.75L21,5.25C20.996,4.017 19.983,3.004 18.75,3M7.5,18.75C7.5,19.163 7.162,19.5 6.75,19.5L5.25,19.5C4.839,19.5 4.5,19.161 4.5,18.75L4.5,17.25C4.5,16.837 4.837,16.5 5.25,16.5L6.75,16.5C7.162,16.5 7.5,16.837 7.5,17.25L7.5,18.75ZM19.5,6.75C19.5,7.162 19.163,7.5 18.75,7.5L17.25,7.5C16.839,7.5 16.5,7.161 16.5,6.75L16.5,5.25C16.5,4.838 16.837,4.5 17.25,4.5L18.75,4.5C19.163,4.5 19.5,4.838 19.5,5.25L19.5,6.75Z" style="fill-rule:nonzero;"/></svg>
